svg/inbox_remove.svg

<svg xmlns="http://www.w3.org/2000/svg" viewBox="0 0 24 24"><path d="M19 15h-4c0 1.7-1.3 3-3 3s-3-1.3-3-3H5V5h14m0-2H5c-1.1 0-2 .9-2 2v14c0 1.1.9 2 2 2h14c1.1 0 2-.9 2-2V5c0-1.1-.9-2-2-2m-4.9 3.5 1.4 1.4-2.1 2.1 2.1 2.1-1.4 1.4-2.1-2.1-2.1 2.1-1.4-1.4 2.1-2.1-2.1-2.1 1.4-1.4L12 8.6z"/></svg>

<?xml version="1.0" encoding="UTF-8"?><!DOCTYPE svg PUBLIC "-//W3C//DTD SVG 1.1//EN" "http://www.w3.org/Graphics/SVG/1.1/DTD/svg11.dtd"><svg xmlns="http://www.w3.org/2000/svg" xmlns:xlink="http://www.w3.org/1999/xlink" version="1.1" id="mdi-inbox-remove" width="24" height="24" viewBox="0 0 24 24"><path d="M19 15H15C15 16.7 13.7 18 12 18S9 16.7 9 15H5V5H19M19 3H5C3.9 3 3 3.9 3 5V19C3 20.1 3.9 21 5 21H19C20.1 21 21 20.1 21 19V5C21 3.9 20.1 3 19 3M14.1 6.5L15.5 7.9L13.4 10L15.5 12.1L14.1 13.5L12 11.4L9.9 13.5L8.5 12.1L10.6 10L8.5 7.9L9.9 6.5L12 8.6L14.1 6.5Z" /></svg>
